src/lib/packages/icons/src/assets/line/arrow-forward-square.svg

<svg width="24" height="24" viewBox="0 0 24 24" fill="none" xmlns="http://www.w3.org/2000/svg">
<path d="M17.625 2.25H6.375C3.715 2.25 2.25 3.715 2.25 6.375V17.625C2.25 20.285 3.715 21.75 6.375 21.75H17.625C20.285 21.75 21.75 20.285 21.75 17.625V6.375C21.75 3.715 20.285 2.25 17.625 2.25ZM20.25 17.625C20.25 19.465 19.465 20.25 17.625 20.25H6.375C4.535 20.25 3.75 19.465 3.75 17.625V6.375C3.75 4.535 4.535 3.75 6.375 3.75H17.625C19.465 3.75 20.25 4.535 20.25 6.375V17.625ZM17.1919 10.7891C17.1539 10.8811 17.099 10.964 17.03 11.033L15.53 12.533C15.384 12.679 15.192 12.7529 15 12.7529C14.808 12.7529 14.616 12.68 14.47 12.533C14.177 12.24 14.177 11.7649 14.47 11.4719L14.6899 11.252H9.75098C8.92398 11.252 8.25098 11.925 8.25098 12.752C8.25098 13.579 8.92398 14.252 9.75098 14.252H15.001C15.415 14.252 15.751 14.588 15.751 15.002C15.751 15.416 15.415 15.752 15.001 15.752H9.75098C8.09698 15.752 6.75098 14.406 6.75098 12.752C6.75098 11.098 8.09698 9.75195 9.75098 9.75195H14.6899L14.47 9.53198C14.177 9.23898 14.177 8.76395 14.47 8.47095C14.763 8.17795 15.238 8.17795 15.531 8.47095L17.031 9.97095C17.1 10.0399 17.1551 10.1231 17.1931 10.2151C17.2681 10.3991 17.2679 10.6051 17.1919 10.7891Z" fill="currentColor"/>
</svg>

<svg xmlns="http://www.w3.org/2000/svg" width="24" height="24" fill="none"><path fill="currentColor" d="M17.625 2.25H6.375c-2.66 0-4.125 1.465-4.125 4.125v11.25c0 2.66 1.465 4.125 4.125 4.125h11.25c2.66 0 4.125-1.465 4.125-4.125V6.375c0-2.66-1.465-4.125-4.125-4.125Zm2.625 15.375c0 1.84-.785 2.625-2.625 2.625H6.375c-1.84 0-2.625-.785-2.625-2.625V6.375c0-1.84.785-2.625 2.625-2.625h11.25c1.84 0 2.625.785 2.625 2.625v11.25Zm-3.058-6.836a.748.748 0 0 1-.162.244l-1.5 1.5a.748.748 0 0 1-1.06 0 .75.75 0 0 1 0-1.061l.22-.22H9.75c-.827 0-1.5.673-1.5 1.5s.673 1.5 1.5 1.5H15a.75.75 0 0 1 0 1.5H9.75c-1.654 0-3-1.346-3-3s1.346-3 3-3h4.939l-.22-.22a.75.75 0 0 1 1.061-1.061l1.5 1.5a.75.75 0 0 1 .16.818Z"/></svg>
